src/assets/svg/merchant-2.svg

<svg width="39" height="39" viewBox="0 0 39 39" fill="none" xmlns="http://www.w3.org/2000/svg">
<path d="M27.209 33.9046H28.8752V26.8654H27.2068L27.209 33.9046ZM31.7915 33.9046H33.4598V26.8654H31.7915V33.9046ZM5.9995 10.1821H28.6672V8.02948H5.9995V10.1821ZM30.3333 39C27.9197 39 25.8722 38.164 24.1908 36.4921C22.5081 34.8202 21.6667 32.7852 21.6667 30.3871C21.6667 27.9891 22.5081 25.9541 24.1908 24.2822C25.8736 22.6103 27.9211 21.775 30.3333 21.7765C32.7455 21.7779 34.7938 22.6131 36.478 24.2822C38.1622 25.9512 39.0029 27.9862 39 30.3871C39 32.7838 38.1593 34.8181 36.478 36.49C34.7938 38.1619 32.7455 38.9978 30.3333 38.9978M0 36.0982V3.47872C0 2.51432 0.340889 1.69344 1.02267 1.01606C1.70444 0.338688 2.53067 0 3.50133 0H31.1675C32.1353 0 32.9608 0.338688 33.644 1.01606C34.3258 1.69344 34.6667 2.51432 34.6667 3.47872V16.2742C34.3142 16.1451 33.9647 16.0346 33.618 15.9427C33.2699 15.8509 32.8972 15.7791 32.5 15.7274V3.47872C32.5 3.14721 32.3613 2.84296 32.084 2.56599C31.8067 2.28901 31.5004 2.15124 31.1653 2.15267H3.50133C3.16767 2.15267 2.86144 2.29045 2.58267 2.56599C2.30389 2.84153 2.16522 3.14577 2.16667 3.47872V32.3977H15.912C16.0102 32.9861 16.1373 33.5616 16.2933 34.1242C16.4508 34.6868 16.6696 35.2235 16.9498 35.7344L16.8762 35.8076L14.417 34.0295L11.5007 36.0982L8.58433 34.0295L5.668 36.0982L2.7495 34.0295L0 36.0982ZM6.00167 26.4112H16.2045C16.2854 26.0165 16.3851 25.647 16.5035 25.3025C16.6219 24.9581 16.7606 24.6101 16.9195 24.2585H6.00167V26.4112ZM6.00167 18.2977H21.84C22.5478 17.7423 23.3061 17.2795 24.115 16.9093C24.9239 16.5376 25.7884 16.2828 26.7085 16.1451H5.9995L6.00167 18.2977Z" fill="#00C700"/>
</svg>

<svg xmlns="http://www.w3.org/2000/svg" width="39" height="39" fill="none"><path fill="#00C700" d="M27.209 33.905h1.666v-7.04h-1.668zm4.583 0h1.668v-7.04h-1.67zM6 10.182h22.667V8.03H6zM30.333 39q-3.62 0-6.142-2.508-2.524-2.508-2.524-6.105t2.524-6.105 6.142-2.506 6.145 2.506T39 30.387q0 3.595-2.522 6.103-2.526 2.508-6.145 2.508M0 36.098V3.478q0-1.446 1.023-2.462T3.5 0h27.667q1.451 0 2.476 1.016a3.34 3.34 0 0 1 1.023 2.463v12.795q-.529-.194-1.049-.331a9 9 0 0 0-1.118-.216V3.48q0-.498-.416-.913t-.919-.413H3.501q-.5 0-.918.413-.42.414-.416.913v28.919h13.745q.147.883.381 1.726.237.845.657 1.61l-.074.074-2.459-1.779-2.916 2.07-2.917-2.07-2.916 2.07-2.919-2.07zm6.002-9.687h10.202q.122-.592.3-1.109.177-.516.415-1.043H6.002zm0-8.113H21.84a11.3 11.3 0 0 1 2.275-1.389 9.6 9.6 0 0 1 2.594-.764H5.999z"/></svg>
